public/avatar/body/19.svg

<svg xmlns:xlink="http://www.w3.org/1999/xlink" height="82" width="84.85" xmlns="http://www.w3.org/2000/svg"><g transform="translate(37.4 42.25)"><use height="38" transform="translate(-11.95 -17.45)" width="32.05" xlink:href="#a"/><use height="21.6" transform="translate(-12.25 -17.95)" width="32.65" xlink:href="#b"/><use height="21.25" transform="translate(-12.55 2.15)" width="33.1" xlink:href="#c"/><use height="26.35" transform="matrix(.9823 0 0 .8032 -3.02 9.678)" width="17.95" xlink:href="#d"/></g><defs><path d="M27.35 7.4q2.15 4.15 3.55 8.75 1.45 4.7 1.15 9.5-.35 4.95-4.2 8.1-3.8 3.2-8.75 4.05l-2.6.2q-3.6 0-7.05-1.15-4.65-1.6-7.1-5.5Q-.2 27.4.05 23q.2-4.4 2-9.3Q3.85 8.75 7 5.05 10.1 1.3 14.7.1l1.8-.1q1.9.05 3.7.8 4.75 2.05 7.15 6.6" fill="#360" fill-rule="evenodd" transform="translate(-.05)" id="e"/><path d="M31.9 20.6q-.3-2.25-1-4.45-1.4-4.6-3.55-8.75-2.4-4.55-7.15-6.6-2.65-1.1-5.5-.7Q10.1 1.3 7 5.05q-3.15 3.7-4.95 8.65Q.7 17.3.25 20.6" fill="none" stroke="#000" stroke-linecap="round" stroke-linejoin="round" transform="translate(.25 .5)" id="f"/><path d="M483-155.5H265.5Q431-387 466-464.5 500.5-542 500.5-612q0-93.5-63.5-155.5Q373-829 251-829q-62.5 0-108 20t-74 59.5q-28.5 39.5-35.5 79t-7 107.5v39h198v-85.5q0-49.5 8.5-63.5 9-14 25.5-14 17 0 26 12.5Q293-662 293-633q0 40-35.5 114-36 74-231 392.5V0H483v-155.5" fill-rule="evenodd" id="g"/><path d="M361.5-813.5H229Q154-716 6-684.5V-574h29.5q66.5 0 83 8 17 8 20.5 24 4 16 4 106.5V0h218.5v-813.5" fill-rule="evenodd" id="h"/><use height="38" width="32.05" xlink:href="#e" id="a"/><use height="21.6" width="32.65" xlink:href="#f" id="b"/><g id="c"><path d="m19.85 2.75-.55.1.5-.2.05.1m.05.35q.6 6.55-.9 10.95-1.55 4.4-3.15 6.25-4.9 2.5-10.6 2.6-5.95.1-11.5-1.7l-1.45-.55q-2.5-3.45-3.55-8.4-1.05-5-.7-7.45Q4.5 15.35 19.3 4.65l.6-1.55M-11.85 3v-.15q1 .35 0 .15" fill="#3c0" fill-rule="evenodd" transform="translate(12.55 -2.15)"/><path d="m19.8 2.65.05.1.05.35q.6 6.55-.9 10.95-1.55 4.4-3.15 6.25-4.9 2.5-10.6 2.6-5.95.1-11.5-1.7l-1.45-.55q-2.5-3.45-3.55-8.4-1.05-5-.7-7.45v-.05l.1-1.6v-.3m31.75.25-.6 1.55q-14.8 10.7-31.25.15" fill="none" stroke="#000" stroke-linecap="round" stroke-linejoin="round" transform="translate(12.55 -2.15)"/></g><g transform="translate(-.3 -1.4)" id="d"><use height="26.35" transform="translate(0 12) scale(.0117)" width="17.95" xlink:href="#g"/><use height="26.35" transform="translate(6.05 12) scale(.0117)" width="17.95" xlink:href="#h"/></g></defs></svg>

<?xml version="1.0" encoding="UTF-8" standalone="no"?>
<svg xmlns:xlink="http://www.w3.org/1999/xlink" height="82.0px" width="84.85px" xmlns="http://www.w3.org/2000/svg">
  <g transform="matrix(1.0, 0.0, 0.0, 1.0, 37.4, 42.25)">
    <use height="38.0" transform="matrix(1.0, 0.0, 0.0, 1.0, -11.95, -17.45)" width="32.05" xlink:href="#sprite0"/>
    <use height="21.6" transform="matrix(1.0, 0.0, 0.0, 1.0, -12.25, -17.95)" width="32.65" xlink:href="#sprite1"/>
    <use height="21.25" transform="matrix(1.0, 0.0, 0.0, 1.0, -12.55, 2.15)" width="33.1" xlink:href="#shape2"/>
    <use height="26.35" transform="matrix(0.9823, 0.0, 0.0, 0.8032, -3.0199, 9.6779)" width="17.95" xlink:href="#text0"/>
  </g>
  <defs>
    <g id="sprite0" transform="matrix(1.0, 0.0, 0.0, 1.0, -0.05, 0.0)">
      <use height="38.0" transform="matrix(1.0, 0.0, 0.0, 1.0, 0.05, 0.0)" width="32.05" xlink:href="#shape0"/>
    </g>
    <g id="shape0" transform="matrix(1.0, 0.0, 0.0, 1.0, -0.05, 0.0)">
      <path d="M27.35 7.4 Q29.5 11.55 30.9 16.15 32.35 20.85 32.05 25.65 31.7 30.6 27.85 33.75 24.05 36.95 19.1 37.8 L16.5 38.0 Q12.9 38.0 9.45 36.85 4.8 35.25 2.35 31.35 -0.2 27.4 0.05 23.0 0.25 18.6 2.05 13.7 3.85 8.75 7.0 5.05 10.1 1.3 14.7 0.1 L16.5 0.0 Q18.4 0.05 20.2 0.8 24.95 2.85 27.35 7.4" fill="#336600" fill-rule="evenodd" stroke="none"/>
    </g>
    <g id="sprite1" transform="matrix(1.0, 0.0, 0.0, 1.0, 0.25, 0.5)">
      <use height="21.6" transform="matrix(1.0, 0.0, 0.0, 1.0, -0.25, -0.5)" width="32.65" xlink:href="#shape1"/>
    </g>
    <g id="shape1" transform="matrix(1.0, 0.0, 0.0, 1.0, 0.25, 0.5)">
      <path d="M31.9 20.6 Q31.6 18.35 30.9 16.15 29.5 11.55 27.35 7.4 24.95 2.85 20.2 0.8 17.55 -0.3 14.7 0.1 10.1 1.3 7.0 5.05 3.85 8.75 2.05 13.7 0.7 17.3 0.25 20.6" fill="none" stroke="#000000" stroke-linecap="round" stroke-linejoin="round" stroke-width="1.0"/>
    </g>
    <g id="shape2" transform="matrix(1.0, 0.0, 0.0, 1.0, 12.55, -2.15)">
      <path d="M19.85 2.75 L19.3 2.85 19.8 2.65 19.85 2.75 M19.9 3.1 Q20.5 9.65 19.0 14.05 17.45 18.45 15.85 20.3 10.95 22.8 5.25 22.9 -0.7 23.0 -6.25 21.2 L-7.7 20.65 Q-10.2 17.2 -11.25 12.25 -12.3 7.25 -11.95 4.8 4.5 15.35 19.3 4.65 L19.9 3.1 M-11.85 3.0 L-11.85 2.85 Q-10.85 3.2 -11.85 3.0" fill="#33cc00" fill-rule="evenodd" stroke="none"/>
      <path d="M19.8 2.65 L19.85 2.75 19.9 3.1 Q20.5 9.65 19.0 14.05 17.45 18.45 15.85 20.3 10.95 22.8 5.25 22.9 -0.7 23.0 -6.25 21.2 L-7.7 20.65 Q-10.2 17.2 -11.25 12.25 -12.3 7.25 -11.95 4.8 L-11.95 4.75 -11.85 3.15 -11.85 3.0 -11.85 2.85 M19.9 3.1 L19.3 4.65 Q4.5 15.35 -11.95 4.8" fill="none" stroke="#000000" stroke-linecap="round" stroke-linejoin="round" stroke-width="1.0"/>
    </g>
    <g id="text0" transform="matrix(1.0, 0.0, 0.0, 1.0, 1.7, 0.65)">
      <g transform="matrix(1.0, 0.0, 0.0, 1.0, -2.0, -2.05)">
        <use fill="#000000" height="26.35" transform="matrix(0.0117, 0.0, 0.0, 0.0117, 0.0, 12.0)" width="17.95" xlink:href="#font_Impact_20"/>
        <use fill="#000000" height="26.35" transform="matrix(0.0117, 0.0, 0.0, 0.0117, 6.05, 12.0)" width="17.95" xlink:href="#font_Impact_10"/>
      </g>
    </g>
    <g id="font_Impact_20">
      <path d="M483.0 -155.5 L265.5 -155.5 Q431.0 -387.0 466.0 -464.5 500.5 -542.0 500.5 -612.0 500.5 -705.5 437.0 -767.5 373.0 -829.0 251.0 -829.0 188.5 -829.0 143.0 -809.0 97.5 -789.0 69.0 -749.5 40.5 -710.0 33.5 -670.5 26.5 -631.0 26.5 -563.0 L26.5 -524.0 224.5 -524.0 224.5 -609.5 Q224.5 -659.0 233.0 -673.0 242.0 -687.0 258.5 -687.0 275.5 -687.0 284.5 -674.5 293.0 -662.0 293.0 -633.0 293.0 -593.0 257.5 -519.0 221.5 -445.0 26.5 -126.5 L26.5 0.0 483.0 0.0 483.0 -155.5" fill-rule="evenodd" stroke="none"/>
    </g>
    <g id="font_Impact_10">
      <path d="M361.5 -813.5 L229.0 -813.5 Q154.0 -716.0 6.0 -684.5 L6.0 -574.0 35.5 -574.0 Q102.0 -574.0 118.5 -566.0 135.5 -558.0 139.0 -542.0 143.0 -526.0 143.0 -435.5 L143.0 0.0 361.5 0.0 361.5 -813.5" fill-rule="evenodd" stroke="none"/>
    </g>
  </defs>
</svg>
